static/fa/svgs/solid/locust.svg

<svg xmlns="http://www.w3.org/2000/svg" viewBox="0 0 576 512"><!--! Font Awesome Free 6.1.1 by @fontawesome - https://fontawesome.com License - https://fontawesome.com/license/free (Icons: CC BY 4.0, Fonts: SIL OFL 1.1, Code: MIT License) Copyright 2022 Fonticons, Inc.--><path d="M328 32c136.1 0 248 111 248 248v40.3c-.2 44-35.9 79.7-80 79.7h-12.4l25.2 44.1c6.6 11.5 2.6 26.2-8.9 32.7-11.5 6.6-26.2 2.6-32.7-8.9L428.4 400h-81.3l-47.4 69.7c-7.5 10.9-22.5 13.6-33.4 6-10.9-7.5-13.6-22.5-6-33.4l29.3-42.3h-74.5l-51.8 70.2c-7.8 10.7-22.9 13-33.5 5.1-10.7-7.8-13-22.9-5.1-33.5l40.5-55.1-43-16.3-79.36 100.5c-8.22 10.4-23.31 12.1-33.71 3.9-10.404-8.2-12.179-23.3-3.966-33.7l240.036-304c5.2-6.6 13.6-10 22-8.9 8.3 1.1 15.5 6.6 18.9 14.3l21.7 50.8 40.9-55.5c5.1-7 13.5-10.6 22.1-9.6 8.5.9 15.9 6.4 19.3 14.3l41.7 97.5H496c10.2 0 20 1.9 29 5.4C508.6 151.4 426.7 80 328 80h-16c-13.3 0-24-10.74-24-24 0-13.25 10.7-24 24-24h16zm4.1 208h47.5l-17.1-40.9-30.4 40.9zm-74.3-41.5L225.1 240h48.2l1.5-1.9-17-39.6zM496 336c8.8 0 16-7.2 16-16s-7.2-16-16-16-16 7.2-16 16 7.2 16 16 16zM88.83 240h37.87l-77.8 97.3c-10.59-10.5-16.9-25-16.9-40.5 0-31.4 25.45-56.8 56.83-56.8z"/></svg>

<svg xmlns="http://www.w3.org/2000/svg" viewBox="0 0 576 512"><!--! Font Awesome Free 6.1.1 by @fontawesome - https://fontawesome.com License - https://fontawesome.com/license/free (Icons: CC BY 4.0, Fonts: SIL OFL 1.1, Code: MIT License) Copyright 2022 Fonticons, Inc. --><path d="M328 32C464.1 32 576 143 576 280V320C576 320.1 576 320.2 576 320.3C575.8 364.3 540.1 400 496 400H483.6L508.8 444.1C515.4 455.6 511.4 470.3 499.9 476.8C488.4 483.4 473.7 479.4 467.2 467.9L428.4 400H347.1L299.7 469.7C292.2 480.6 277.2 483.3 266.3 475.7C255.4 468.2 252.7 453.2 260.3 442.3L289.6 400H215.1L163.3 470.2C155.5 480.9 140.4 483.2 129.8 475.3C119.1 467.5 116.8 452.4 124.7 441.8L165.2 386.7L122.2 370.4L42.84 470.9C34.62 481.3 19.53 483 9.13 474.8C-1.274 466.6-3.049 451.5 5.164 441.1L245.2 137.1C250.4 130.5 258.8 127.1 267.2 128.2C275.5 129.3 282.7 134.8 286.1 142.5L307.8 193.3L348.7 137.8C353.8 130.8 362.2 127.2 370.8 128.2C379.3 129.1 386.7 134.6 390.1 142.5L431.8 240H496C506.2 240 516 241.9 525 245.4C508.6 151.4 426.7 80 328 80H312C298.7 80 288 69.26 288 56C288 42.75 298.7 32 312 32L328 32zM332.1 240H379.6L362.5 199.1L332.1 240zM257.8 198.5L225.1 240H273.3L274.8 238.1L257.8 198.5zM496 336C504.8 336 512 328.8 512 320C512 311.2 504.8 304 496 304C487.2 304 480 311.2 480 320C480 328.8 487.2 336 496 336zM88.83 240H126.7L48.9 337.3C38.31 326.8 32 312.3 32 296.8C32 265.4 57.45 240 88.83 240V240z"/></svg>
